SVG-Logos/Observability/Grafana/grafana-labs-icon.svg

<svg xmlns="http://www.w3.org/2000/svg" width="71" height="72" viewBox="0 0 71 72" fill="none"><path opacity=".1" d="M31.2975 71.4224C44.8073 71.4224 55.7592 70.1359 55.7592 68.5491c0-1.5869-10.9519-2.8733-24.4617-2.8733-13.5097.0-24.46156 1.2864-24.46156 2.8733C6.83594 70.1359 17.7878 71.4224 31.2975 71.4224z" fill="#080821"/><path d="M62.7053 43.6791C64.5273 42.5319 67.695 41.024 69.2024 43.6792c1.5074 2.6551-5.0176 8.0251-9.8331 9.1313" fill="#f99f10"/><path d="M62.7053 43.6791C64.5273 42.5319 67.695 41.024 69.2024 43.6792c1.5074 2.6551-5.0176 8.0251-9.8331 9.1313" stroke="#3a1103" stroke-width=".643292" stroke-miterlimit="10" stroke-linecap="round"/><path d="M26.7767 16.2784c-5.875-4.0981-13.3921-5.0176-14.7143-3.5467-1.0725 1.1914 2.9791 7.7188 2.3227 9.6263C13.7304 24.2655 7.98301 23.0314 7.35428 25.457 7.05655 26.6096 11.4651 29.3904 11.3468 31 11.2284 32.6097 7.82398 32.1545 7.57434 34.2378c-.16828 1.4006 2.93846 1.7096 2.82006 3.3784-.1183 1.6688-2.36145 1.3636-2.26344 2.9806C8.21047 41.9085 10.6625 41.0445 11.319 43.2499 11.9737 45.4553 26.7786 16.2784 26.7786 16.2784H26.7767z" fill="#ef6122"/><path d="M.570234 55.4216c.179375-5.395 3.942566-6.5921 6.675726-5.6707C9.97727 50.6723 9.82563 53.849 9.13587 55.0442 8.03373 56.9517 6.41565 56.1284 7.02035 54.7926 7.46786 53.5104 7.55107 51.7306 5.43371 52.2967 2.80225 53.0016 3.62147 60.0803 9.16176 58.689c3.79464-.9529 3.49684-4.9732 3.19544-10.8364C11.5491 42.1801 12.4238 34.7425 14.8352 27.6823c4.8857-14.3054 34.3161-18.95481 44.0856-5.7225 12.6913 17.1879-1.3037 33.9762-3.4562 36.1205C48.7593 63.2866 49.8466 67.9971 45.0424 68.3098 40.4766 68.6076 40.852 63.9656 37.8322 63.7066 37.6547 63.7066 37.4772 63.7066 37.2996 63.7029 33.7547 63.9638 33.0704 68.3875 27.7243 68.3098 23.3675 68.2469 25.3074 64.4392 22.3967 62.6131 21.7864 62.3245 21.2576 62.121 20.7694 61.9878 20.3847 61.9064 19.9576 61.8472 19.4749 61.8176 19.3639 61.8102 18.6927 61.8139 18.4967 61.8139 16.7676 61.8453 15.7302 62.2542 11.8228 63.0498 4.78279 64.4818.418597 59.9859.570234 55.4216z" fill="#fac20c" stroke="#3a1103" stroke-width=".643292" stroke-miterlimit="10"/><path d="M19.79 19.9288c10.008-7.0935 21.6563-3.2193 23.1449-2.235C44.4236 18.6781 46.5335 17.5088 45.3482 14.5541 41.376 4.6595 31.1276-.372916 28.3685 1.33107 25.284 3.23673 29.1637 11.7363 27.1481 13.7289 25.53 15.3275 24.4278 14.1064 21.6762 13.1831 19.1908 12.3487 19.79 19.9288 19.79 19.9288z" fill="#ef6122"/><path d="M34.7742 39.3086H62.1945C65.4893 39.3086 68.1602 36.6364 68.1602 33.34V33.3382c0-3.2964-2.6709-5.9686-5.96570000000001-5.9686H34.7742c-3.2948.0-5.9657 2.6722-5.9657 5.9686V33.34c0 3.2964 2.6709 5.9686 5.9657 5.9686z" fill="#5545ef" stroke="#231735" stroke-width=".643292" stroke-miterlimit="10"/><path d="M41.0984 37.3008H61.9059C64.0915 37.3008 65.8633 35.5281 65.8633 33.3415c0-2.1867-1.7718-3.9594-3.95739999999999-3.9594H41.0984c-2.1856.0-3.9574 1.7727-3.9574 3.9594.0 2.1866 1.7718 3.9593 3.9574 3.9593z" fill="#19052d"/><path d="M39.918 33.9071l1.9675-1.826C42.2055 31.7832 42.7232 31.785 43.0432 32.0811l1.5348 1.432C44.8979 33.8109 45.4157 33.8109 45.7356 33.5131L45.9095 33.3521C46.2294 33.0542 46.7472 33.0561 47.0671 33.3521l2.1211 1.9797C49.5081 35.6296 50.0258 35.6296 50.3458 35.3318L53.9425 31.9922C54.2624 31.6944 54.7802 31.6962 55.1001 31.9922l1.0874 1.0139C56.5074 33.304 57.0252 33.304 57.3451 33.0061 57.665 32.7083 58.1828 32.7101 58.5027 33.0061l1.276 1.1915C60.0986 34.4955 60.6164 34.4955 60.9363 34.1976L63.3274 31.9793" stroke="#fff" stroke-width=".666451" stroke-miterlimit="10" stroke-linecap="round"/><path d="M32.3439 53.7852c-2.5797 2.346-5.5162 3.2137-7.1584 1.2063-1.8141-2.2183-.183-4.7882 2.1951-6.9603" fill="#f99f10"/><path d="M32.3439 53.7852c-2.5797 2.346-5.5162 3.2137-7.1584 1.2063-1.8141-2.2183-.183-4.7882 2.1951-6.9603" stroke="#3a1103" stroke-width=".643292" stroke-miterlimit="10" stroke-linecap="round"/><path d="M23.3313 14.2933c-5.0447-2.3756-9.9655-3.6356-11.2692-1.5634-1.4091 2.2405 3.3952 6.9991 2.3226 9.6263C13.3824 24.8132 7.72194 22.704 7.35394 25.4552 7.05991 27.6569 11.4648 29.3886 11.3464 30.9983c-.1183 1.6096-3.56529.9528-3.81678 3.0379-.16828 1.4006 2.98278 1.9094 2.86258 3.5782C10.2739 39.2833 8.12877 38.9761 8.12877 40.595 8.12877 41.9123 11.9733 42.0252 12.0824 44.7653" stroke="#3a1103" stroke-width=".643292" stroke-miterlimit="10"/><path d="M42.9315 17.6953C44.4202 18.6796 46.5301 17.5103 45.3448 14.5556 41.3726 4.66103 31.4275-.389887 28.3651 1.3326 25.1512 3.1402 29.1603 11.7379 27.1447 13.7305 26.0185 14.8443 24.5391 14.7962 23.1836 14.2263" stroke="#3a1103" stroke-width=".643292" stroke-miterlimit="10"/><path d="M42.9944 17.7403c-5.3535-3.1749-14.8197-3.3432-23.2171 2.9399" stroke="#3a1103" stroke-width=".643292" stroke-miterlimit="10"/><path d="M39.7281 45.2215C39.6449 42.6572 40.4956 41.042 43.225 42.0651c2.7295 1.0231 7.3341 1.4505 9.4644 1.2803C54.8216 43.1752 55.8442 42.918 55.8442 43.943 55.8442 44.968 53.9691 45.5637 53.7971 48.0374 53.6269 50.5111 51.4097 52.1318 45.7825 51.2789 40.1553 50.4259 39.8132 47.8672 39.7281 45.2215z" fill="#000"/><path d="M47.7802 44.2014C50.6003 44.416 52.2128 44.1681 52.2479 44.3697 52.2831 44.5714 52.4495 46.453 50.9036 46.5196 49.3576 46.5862 49.1579 45.3762 49.1579 45.3762S49.1246 46.4845 47.6471 46.4179C46.1695 46.3513 45.9014 44.873 45.9014 44.873S45.7331 45.7796 44.3573 45.5779C42.9796 45.3762 43.1479 43.4613 43.2496 43.3263 43.3513 43.1912 44.6938 43.9646 47.7839 44.1995L47.7802 44.2014z" fill="#fff"/></svg>

<svg xmlns="http://www.w3.org/2000/svg" fill="none" viewBox="0 0 71 72"><path fill="#080821" d="M31.297 71.422c13.51 0 24.462-1.286 24.462-2.873 0-1.587-10.952-2.873-24.462-2.873S6.837 66.962 6.837 68.549c0 1.587 10.952 2.873 24.462 2.873z" opacity=".1"/><path fill="#f99f10" d="M62.705 43.68c1.822-1.148 4.99-2.656 6.497 0 1.508 2.654-5.017 8.024-9.833 9.13"/><path stroke="#3a1103" stroke-linecap="round" stroke-miterlimit="10" stroke-width=".643" d="M62.705 43.68c1.822-1.148 4.99-2.656 6.497 0 1.508 2.654-5.017 8.024-9.833 9.13"/><path fill="#ef6122" d="M26.777 16.278c-5.875-4.098-13.392-5.017-14.715-3.546-1.072 1.191 2.98 7.719 2.323 9.626-.655 1.907-6.402.673-7.03 3.099-.298 1.153 4.11 3.933 3.992 5.543-.119 1.61-3.523 1.154-3.773 3.238-.168 1.4 2.939 1.71 2.82 3.378-.118 1.669-2.361 1.364-2.263 2.98.08 1.313 2.531.449 3.188 2.654.655 2.205 15.46-26.972 15.46-26.972h-.002z"/><path fill="#fac20c" stroke="#3a1103" stroke-miterlimit="10" stroke-width=".643" d="M.57 55.422c.18-5.395 3.943-6.592 6.676-5.671 2.731.921 2.58 4.098 1.89 5.293-1.102 1.908-2.72 1.084-2.116-.251.448-1.283.531-3.062-1.586-2.496-2.632.705-1.813 7.783 3.728 6.392 3.794-.953 3.497-4.973 3.195-10.836-.808-5.673.067-13.11 2.478-20.17 4.886-14.306 34.316-18.956 44.086-5.723 12.691 17.188-1.304 33.976-3.456 36.12-6.706 5.207-5.618 9.917-10.423 10.23-4.565.298-4.19-4.344-7.21-4.603-.177 0-.355 0-.532-.004-3.545.26-4.23 4.684-9.576 4.607-4.357-.063-2.417-3.87-5.327-5.697a9.97 9.97 0 0 0-1.628-.625 8.848 8.848 0 0 0-1.294-.17c-.111-.008-.782-.004-.978-.004-1.73.031-2.767.44-6.674 1.236C4.783 64.482.419 59.986.57 55.422z"/><path fill="#ef6122" d="M19.79 19.929c10.008-7.094 21.656-3.22 23.145-2.235 1.489.984 3.598-.185 2.413-3.14C41.376 4.66 31.128-.373 28.368 1.331c-3.084 1.906.796 10.405-1.22 12.398-1.618 1.599-2.72.377-5.472-.546-2.485-.834-1.886 6.746-1.886 6.746z"/><path fill="#5545ef" stroke="#231735" stroke-miterlimit="10" stroke-width=".643" d="M34.774 39.309h27.42a5.967 5.967 0 0 0 5.966-5.969v-.002a5.967 5.967 0 0 0-5.966-5.968h-27.42a5.967 5.967 0 0 0-5.966 5.968v.002a5.967 5.967 0 0 0 5.966 5.969z"/><path fill="#19052d" d="M41.098 37.3h20.808a3.958 3.958 0 0 0 3.957-3.958 3.958 3.958 0 0 0-3.957-3.96H41.098a3.958 3.958 0 0 0-3.957 3.96 3.958 3.958 0 0 0 3.957 3.959z"/><path stroke="#fff" stroke-linecap="round" stroke-miterlimit="10" stroke-width=".666" d="m39.918 33.907 1.968-1.826a.863.863 0 0 1 1.157 0l1.535 1.432a.862.862 0 0 0 1.158 0l.174-.16a.863.863 0 0 1 1.157 0l2.121 1.979a.862.862 0 0 0 1.158 0l3.597-3.34a.864.864 0 0 1 1.157 0l1.087 1.014a.861.861 0 0 0 1.158 0 .864.864 0 0 1 1.158 0l1.276 1.192a.861.861 0 0 0 1.157 0l2.391-2.219"/><path fill="#f99f10" d="M32.344 53.785c-2.58 2.346-5.516 3.214-7.159 1.207-1.814-2.219-.183-4.789 2.196-6.96"/><path stroke="#3a1103" stroke-linecap="round" stroke-miterlimit="10" stroke-width=".643" d="M32.344 53.785c-2.58 2.346-5.516 3.214-7.159 1.207-1.814-2.219-.183-4.789 2.196-6.96"/><path stroke="#3a1103" stroke-miterlimit="10" stroke-width=".643" d="M23.331 14.293c-5.044-2.375-9.965-3.635-11.269-1.563-1.409 2.24 3.395 6.999 2.323 9.626-1.003 2.457-6.663.348-7.031 3.1-.294 2.2 4.11 3.933 3.992 5.542-.118 1.61-3.565.953-3.816 3.038-.169 1.4 2.982 1.91 2.862 3.578-.118 1.67-2.263 1.362-2.263 2.981 0 1.317 3.844 1.43 3.953 4.17"/><path stroke="#3a1103" stroke-miterlimit="10" stroke-width=".643" d="M42.931 17.695c1.49.985 3.6-.185 2.414-3.14C41.373 4.662 31.427-.39 28.365 1.334c-3.214 1.807.795 10.405-1.22 12.397-1.127 1.114-2.606 1.066-3.961.496"/><path stroke="#3a1103" stroke-miterlimit="10" stroke-width=".643" d="M42.994 17.74c-5.353-3.175-14.82-3.343-23.217 2.94"/><path fill="#000" d="M39.728 45.221c-.083-2.564.768-4.179 3.497-3.156 2.73 1.023 7.334 1.45 9.464 1.28 2.133-.17 3.155-.427 3.155.598s-1.875 1.62-2.047 4.094c-.17 2.474-2.387 4.095-8.014 3.242-5.628-.853-5.97-3.412-6.055-6.058z"/><path fill="#fff" d="M47.78 44.201c2.82.215 4.433-.033 4.468.169.035.201.202 2.083-1.344 2.15-1.546.066-1.746-1.144-1.746-1.144s-.033 1.108-1.51 1.042c-1.479-.067-1.747-1.545-1.747-1.545s-.168.907-1.544.705c-1.377-.202-1.21-2.117-1.107-2.252.101-.135 1.444.639 4.534.873l-.004.002z"/></svg>
